!!!!SEGMENT: pl-sa--498-a-viii-138--003_anonim--eia-gentes-esto-mihi.krn
!!!cenid: 17xx:1330
!!!COM: Anonim
!!!COM-rismID: pe30004985
!!!CDT:
!!!CNT:
!!!OPR: Eia gentes
!!!OTL: Esto mihi
!!!OMV: 003
!!!PDT:
!!!AGN:
!!!SMS-siglum: PL-SA
!!!SMS-shelfmark: 498/A VIII 138
!!!SMS-shelfwork: 001-003 M
!!!SMS-variant:
!!!SMS-altvar:
!!!NIFC-rismSourceID: 1001069393
!!!NIFC-islandoraID:
!!!URL-pdf-islandora:
!!!URL-scan: https://bc.bdsandomierz.pl/dlibra/publication/1172/edition/1133/content @EN{Scan in the Sandomierz Diocese Digital Library} @PL{Skany w portalu Cyfrowa Biblioteka Diecezjalna w Sandomierzu}
!!!ONB-nifc: UWAGA: części Eia gentes: 1. Eia gentes, 2. Recitativ, 3. Esto mihi, 4. Alleluja
!!!AIN: 1 organ 1 soprn 1 viola 2 violn
!!!key: A
**kern	**fba	**kern	**kern	**kern	**kern	**text
*	*	*group1	*group1	*group1	*	*
*part5	*part5	*part4	*part3	*part2	*part1	*part1
*staff5	*	*staff4	*staff3	*staff2	*staff1	*staff1
*I"Organo.	*	*I"Alt Viola.	*I"Violino . 2do .	*I"Violino. 1mo.	*I"Canto Solo.	*
*I'org	*	*I'a-vla	*I'vl 2	*I'vl 1	*I'S Solo	*
*Iorgan	*	*Iviola	*Ivioln	*Ivioln	*Isoprn	*
*ICklav	*	*ICstr	*ICstr	*ICstr	*ICvox	*
*IGcont	*	*	*	*	*IGsolo	*
*clefF4	*	*clefG2	*clefG2	*clefG2	*clefC1	*
*>A	*	*>A	*>A	*>A	*>A	*
*>[A,B,A]	*	*>[A,B,A]	*>[A,B,A]	*>[A,B,A]	*>[A,B,A]	*
*k[f#c#g#]	*	*k[f#c#g#]	*k[f#c#g#]	*k[f#c#g#]	*k[f#c#g#]	*
*A:	*	*A:	*A:	*A:	*A:	*
*M3/4	*	*M3/4	*M3/4	*M3/4	*M3/4	*
*all\right	*	*all\right	*all\right	*all\right	*all\right	*
*2\right	*	*2\right	*	*	*2\right	*
=1	=1	=1	=1	=1	=1	=1
!	!	!	!LO:TX:i:b:t=Aria.	!	!	!
!LO:TX:t=P:znaki:F#C#FF#G#:problem	!	!LO:TX:i:b:t=Aria.	!LO:TX:t=P:znaki:ff#cc#f#gg#g#:problem	!LO:TX:i:b:t=Aria.	!LO:TX:a:t=20&colon;	!
!LO:TX:b:i:t=Aria.	!	!LO:TX:t=P:znaki:ff#cc#f#gg#g#:problem	!	!LO:TX:t=P:znaki:ff#cc#f#gg#:problem	!LO:TX:t=P:znaki:cc#f#c#g#:problem	!
4A\	.	4a/	8r	8r	2.r	.
.	.	.	8cc#\L	8ee\L	.	.
4r	.	4r	(8dd\	(8dd\	.	.
.	.	.	8ee\	8cc#\	.	.
4r	.	4r	8dd\)	8b\)	.	.
.	.	.	8cc#\J	8a\J	.	.
=2	=2	=2	=2	=2	=2	=2
2D/	.	4a/	(4dd\	(4ff#\	2.r	.
.	.	4b/	4b/)	4dd\)	.	.
4AA/	.	4a/	4cc#\	4ee\	.	.
=3	=3	=3	=3	=3	=3	=3
4A\	.	4a/	8r	8r	2.r	.
.	.	.	8cc#\L	8ee\L	.	.
4r	.	4r	(8dd\	(8dd\	.	.
.	.	.	8ee\	8cc#\	.	.
4r	.	4r	8dd\)	8b\)	.	.
.	.	.	8cc#\J	8a\J	.	.
=4	=4	=4	=4	=4	=4	=4
4AA/	.	4a/	4cc#\	4ee\	2.r	.
4D/	6 4	2e/	4b/	4dd\	.	.
4D#X/	5	.	4a/	4cc#\	.	.
=5	=5	=5	=5	=5	=5	=5
4E\	6 4	2.e/	4aT/	4cc#t\	2.r	.
4EE/	5	.	4g#/	4b/	.	.
4r	.	.	4r	4r	.	.
=6	=6	=6	=6	=6	=6	=6
4A#X\	.	4cc#\	8r	8r	2.r	.
.	.	.	8cc#\L	8ee\L	.	.
4A#\	.	4cc#\	(8ee\	(8cc#\	.	.
.	.	.	8dd\)	8b\	.	.
4r	.	4r	8cc#\	8a#X\)	.	.
.	.	.	8ee\J	8cc#\J	.	.
=7	=7	=7	=7	=7	=7	=7
!	!	!	!	!LO:TX:t=P:problem=mixed beam	!	!
4A#X\	.	4cc#\	8r	8f#/L	2.r	.
.	.	.	(8cc#\L	(8ee\	.	.
4A#\	.	4cc#\	8ee\	8cc#\	.	.
.	.	.	8dd\)	8b\	.	.
4r	.	4r	8cc#\	8a#X\)	.	.
.	.	.	8ee\J	8cc#\J	.	.
=8	=8	=8	=8	=8	=8	=8
!	!	!	!	!LO:TX:t=P:problem=mixed beam	!	!
2A#X\	.	2cc#\	8r	8e/L	2.r	.
.	.	.	8cc#\L	8ee\	.	.
.	.	.	8ee\	8cc#\	.	.
.	.	.	8dd\J	8b\	.	.
4F#\	.	4f#/	4cc#\	8a#X\	.	.
.	.	.	.	8ee\J	.	.
!	!	!	!LO:LB:g=original	!LO:LB:g=original	!	!
=9	=9	=9	=9	=9	=9	=9
2B\	.	2f#/	4cc#t\	4eeT\	2.r	.
.	.	.	4b/	4dd\	.	.
4A\	.	4r	4r	4r	.	.
=10	=10	=10	=10	=10	=10	=10
4G#\	.	4b/	8r	8r	2.r	.
.	.	.	8b\L	8dd\L	.	.
4G#\	.	4b/	(8dd\	(8b\	.	.
.	.	.	8cc#\)	8a\	.	.
4r	.	4r	8b\	8g#X\)	.	.
.	.	.	8dd\J	8b\J	.	.
=11	=11	=11	=11	=11	=11	=11
!	!	!	!	!LO:TX:t=P:problem=mixed beam	!	!
4G#\	.	4b/	8r	8e/L	2.r	.
.	.	.	8b\L	8dd\	.	.
4G#\	.	4b/	8dd\	(8b\	.	.
.	.	.	8cc#\	8a\	.	.
4r	.	4r	8b\	8g#X\)	.	.
.	.	.	8dd\J	8b\J	.	.
!LO:LB:g=original	!	!	!	!	!	!
=12	=12	=12	=12	=12	=12	=12
!	!	!	!	!LO:TX:t=P:problem=mixed beam	!	!
2G#\	.	2b/	8r	8d/L	2.r	.
.	.	.	8b\L	8dd\	.	.
.	.	.	8dd\	8b\	.	.
.	.	.	8cc#\J	8a\	.	.
4E\	.	4e/	4b/	8g#X\	.	.
.	.	.	.	8dd\J	.	.
=13	=13	=13	=13	=13	=13	=13
4A\	.	2e/	4bT/	4ddT\	2.r	.
4AA/	.	.	4a/	4cc#\	.	.
*	*	*custos:e	*	*	*	*
!	!	!LO:TX:i:b:t=Verte cito	!	!	!	!
4BB/	.	4r	4r	4r	.	.
!	!	!LO:PB:g=original	!	!	!	!
=14	=14	=14	=14	=14	=14	=14
4C#/	.	4e/	4a/	8r	2.r	.
!	!	!	!	!LO:TX:t=P:problem=mixed beam	!	!
.	.	.	.	8cc#\L	.	.
4r	.	4r	4r	(8dd\	.	.
.	.	.	.	8ee\	.	.
4C#/	.	4e/	4ee\	8a/)	.	.
.	.	.	.	8gn/J	.	.
=15	=15	=15	=15	=15	=15	=15
4D/	.	4f#/	4a/	8f#\L	2.r	.
!	!	!	!	!LO:SIC:v:s=(8dd\	!	!
.	.	.	.	(8dd#X\	.	.
4r	.	4r	4r	8ee\	.	.
.	.	.	.	8ff#\)	.	.
4D/	.	4f#/	4ff#\	8b\	.	.
.	.	.	.	8a\J	.	.
=16	=16	=16	=16	=16	=16	=16
4E\	.	4g#/	8b\L	8g#/L	2.r	.
.	.	.	8b\	8g#/	.	.
4E\	.	4g#/	8cc#\	8a/	.	.
.	.	.	8dd\	8b/	.	.
4E\	.	4g#/	8g#X\	8e/	.	.
*	*	*	*	*custos:a	*	*
.	.	.	8dd\J	8b/J	.	.
!	!	!	!	!LO:PB:g=original	!	!
=17	=17	=17	=17	=17	=17	=17
4E\	.	4a/	8r	8r	2.r	.
.	.	.	8cc#\L	(8a/L	.	.
4E\	.	4a/	(8dd\	8b/	.	.
*	*	*	*custos:a	*	*	*
.	.	.	8ee\J)	8cc#/	.	.
!	!	!	!LO:LB:g=original	!	!	!
4E\	.	4a/	8a\L	8e/)	.	.
.	.	.	8ee\J	8cc#/J	.	.
=18	=18	=18	=18	=18	=18	=18
4E\	.	4b/	8r	8r	2.r	.
!	!	!	!	!LO:TX:t=P:problem=mixed beam	!	!
.	.	.	8g#X/L	(8b\L	.	.
4E\	.	4b/	8a/	8cc#\	.	.
.	.	.	8b/	8dd\)	.	.
4E\	.	4b/	8g#X/	8e/	.	.
.	.	.	8b/J	8dd\J	.	.
=19	=19	=19	=19	=19	=19	=19
4.A\	.	4.cc#\	4.a/	4.cc#\	2.r	.
8G#\	.	8b/	8b/	8g#X/	.	.
4F#\	.	4a/	4cc#\	4a/	.	.
=20	=20	=20	=20	=20	=20	=20
8r	.	8r	8r	8r	2.r	.
8D/	.	8f#/	8b/	8dd\	.	.
4E\	4	2e/	2g#X/	2bT/	.	.
4EE/	#	.	.	.	.	.
=21	=21	=21	=21	=21	=21	=21
!	!	!	!	!	!LO:TUP:problem=klamra łukowa	!
2AA/	.	4e/	4a/	4a/	12ee\L	Es-
.	.	.	.	.	12ff#\	.
.	.	.	.	.	12ee\J	.
.	.	4r	4r	4r	4ff#\	.
4A\	.	4r	4r	4r	4ee\	-to
=22	=22	=22	=22	=22	=22	=22
4B\	.	4r	8r	8r	(8dd\L	mi-
.	.	.	8b\L	8dd\L	8cc#\J)	.
4r	.	4b/	(8dd\	(8b\	4dd\	-hi
.	.	.	8cc#\	8a\	.	.
4r	.	4b/	8b\)	8g#X\)	4r	.
.	.	.	8dd\J	8b\J	.	.
!LO:LB:g=original	!	!	!	!	!	!
=23	=23	=23	=23	=23	=23	=23
!	!	!	!	!	!LO:TUP:problem=klamra łukowa	!
2G#\	.	4b/	4e/	4e/	12dd\L	San-
.	.	.	.	.	12ee\	.
.	.	.	.	.	12dd\J	.
.	.	4r	4r	4r	4ee\	.
4G#\	.	4r	4r	4r	4dd\	-cta
=24	=24	=24	=24	=24	=24	=24
4A\	.	4r	4r	8r	(8cc#\L	di-
.	.	.	.	8ee/L	8b\J)	.
4r	.	4a/	8ee\L	8cc#/	4cc#\	-es
.	.	.	8cc#\	8a/	.	.
4r	.	4a/	8a\	8e/	4r	.
.	.	.	8e\J	8c#/J	.	.
=25	=25	=25	=25	=25	=25	=25
!	!	!	!	!	!LO:TUP:problem=klamra łukowa	!
2AA/	.	4a/	4A/	4A/	12cc#\L	cha-
.	.	.	.	.	12dd\	.
.	.	.	.	.	12cc#\J	.
.	.	4r	4r	4r	4dd\	.
*	*	*	*custos:ee	*	*	*
4AA/	.	4r	4r	4r	4cc#\	-ra
!	!	!LO:LB:g=original	!LO:PB:g=original	!LO:LB:g=original	!	!
=26	=26	=26	=26	=26	=26	=26
4E\	6 4	4r	4r	4r	4cc#\	qui-
4EE/	3	4e/	4r	8r	4b\	-es
.	.	.	.	8ee\L	.	.
4r	.	4e/	8r	8b\	4r	.
.	.	.	8ee\	8g#X\J	.	.
=27	=27	=27	=27	=27	=27	=27
4r	.	4e/	8b/L	4e/	4r	.
.	.	.	8g#/J	.	.	.
4E\	.	4r	4e/	4r	4ee\	et
4E\	.	4r	4r	4r	4b\	ſo-
=28	=28	=28	=28	=28	=28	=28
!	!	!LO:TX:a:t=7.	!LO:TX:a:t=7.	!LO:TX:a:t=7.	!	!
4F#\	.	2.r	2.r	2.r	8a\L	-la-
.	.	.	.	.	16f#\L	.
*	*	*	*	*	*custos:a	*
.	.	.	.	.	16g#\JJ	.
!	!	!	!	!	!LO:LB:g=original	!
4D#X/	.	.	.	.	8a\L	.
.	.	.	.	.	16dd#X\L	.
.	.	.	.	.	16ee\JJ	.
4BB/	.	.	.	.	8ff#\L	.
.	.	.	.	.	8a\J	.
=29	=29	=29	=29	=29	=29	=29
2E\	.	2.r	2.r	2.r	8g#/L	.
.	.	.	.	.	16e/L	.
.	.	.	.	.	16f#/JJ	.
.	.	.	.	.	16g#/LL	.
.	.	.	.	.	16e/	.
.	.	.	.	.	16g#/	.
.	.	.	.	.	16a/JJ	.
4E\	.	.	.	.	16b\LL	.
.	.	.	.	.	16a\	.
.	.	.	.	.	16b\	.
.	.	.	.	.	16cc#\JJ	.
=30	=30	=30	=30	=30	=30	=30
2F#\	.	2.r	2.r	2.r	8a\L	.
.	.	.	.	.	16f#\L	.
.	.	.	.	.	16g#\JJ	.
.	.	.	.	.	16a\LL	.
.	.	.	.	.	16f#\	.
.	.	.	.	.	16a\	.
.	.	.	.	.	16b\JJ	.
4F#\	.	.	.	.	16cc#\LL	.
.	.	.	.	.	16b\	.
.	.	.	.	.	16cc#\	.
.	.	.	.	.	16dd#X\JJ	.
=31	=31	=31	=31	=31	=31	=31
2G#\	.	2.r	2.r	2.r	8b\L	.
.	.	.	.	.	16g#\L	.
.	.	.	.	.	16a\JJ	.
.	.	.	.	.	16b\LL	.
.	.	.	.	.	16g#\	.
.	.	.	.	.	16b\	.
.	.	.	.	.	16cc#\JJ	.
4G#\	.	.	.	.	16dd\LL	.
.	.	.	.	.	16cc#\	.
.	.	.	.	.	16dd\	.
.	.	.	.	.	16ee\JJ	.
=32	=32	=32	=32	=32	=32	=32
2A\	.	2.r	2.r	2.r	8cc#\L	.
.	.	.	.	.	16a\L	.
.	.	.	.	.	16b\JJ	.
.	.	.	.	.	16cc#\LL	.
.	.	.	.	.	16a\	.
.	.	.	.	.	16cc#\	.
*	*	*	*	*	*custos:ee	*
.	.	.	.	.	16dd#X\JJ	.
!	!	!	!	!	!LO:LB:g=original	!
4AA/	.	.	.	.	16ee\LL	.
.	.	.	.	.	16dd#X\	.
.	.	.	.	.	16ee\	.
.	.	.	.	.	16ff#\JJ	.
=33	=33	=33	=33	=33	=33	=33
2BB/	#	2.r	2.r	2.r	4.dd#X\	.
.	.	.	.	.	8cc#\	-ti-
4D#X/	.	.	.	.	(8b\L	-um
.	.	.	.	.	8a\J)	.
=34	=34	=34	=34	=34	=34	=34
4E\	.	2.r	2.r	2.r	8g#X/	cor-
.	.	.	.	.	8ee\	-diſ
4B\	.	.	.	.	4g#X/	me-
4BB/	.	.	.	.	4f#/	.
=35	=35	=35	=35	=35	=35	=35
!LO:TX:a:t=x	!	!	!	!	!	!
4E\	.	4cc#\	8r	8r	4e/	-i
.	.	.	8cc#\L	8ee\L	.	.
4r	.	4cc#\	(8ee\	(8cc#\	4r	.
.	.	.	8dd\)	8b\	.	.
4r	.	4r	8cc#\	8a#X\)	4r	.
.	.	.	8ee\J	8cc#\J	.	.
!LO:LB:g=original	!	!	!	!	!	!
=36	=36	=36	=36	=36	=36	=36
!	!	!	!	!LO:TX:t=P:problem=mixed beam	!LO:TX:a:t=7.	!
4A#X\	.	4cc#\	8r	8f#/L	2.r	.
.	.	.	8cc#\L	(8ee\	.	.
4A#\	.	4cc#\	(8ee\	8cc#\	.	.
.	.	.	8dd\)	8b\	.	.
4r	.	4r	8cc#\	8a#X\)	.	.
.	.	.	8ee\J	8cc#\J	.	.
=37	=37	=37	=37	=37	=37	=37
!	!	!	!	!LO:TX:t=P:problem=mixed beam	!	!
2A#X\	.	2cc#\	8r	8e/L	2.r	.
.	.	.	8cc#\L	(8ee\	.	.
.	.	.	8ee\	8cc#\	.	.
.	.	.	8dd\J	8b\)	.	.
4F#\	.	4cc#\	4cc#\	8a#X\	.	.
.	.	.	.	8ee\J	.	.
=38	=38	=38	=38	=38	=38	=38
2B\	.	2f#/	4cc#t\	4eeT\	2.r	.
.	.	.	4b/	4dd\	.	.
4A\	.	4r	4r	4r	.	.
=39	=39	=39	=39	=39	=39	=39
4G#\	.	4b/	8r	8r	2.r	.
.	.	.	8b\L	(8dd\L	.	.
4G#\	.	4b/	(8dd\	8b\	.	.
.	.	.	8cc#\	8a\	.	.
4r	.	4r	8b\)	8g#X\)	.	.
.	.	.	8dd\J	8b\J	.	.
!	!	!	!	!LO:LB:g=original	!	!
=40	=40	=40	=40	=40	=40	=40
!	!	!	!	!LO:TX:t=P:problem=mixed beam	!	!
4G#\	.	4b/	8r	8e/L	2.r	.
.	.	.	8b\L	(8dd\	.	.
4G#\	.	4b/	(8dd\	8b\	.	.
.	.	.	8cc#\	8a\)	.	.
4r	.	4r	8b\)	8g#X\	.	.
.	.	.	8dd\J	8b\J	.	.
!	!	!	!LO:LB:g=original	!	!	!
=41	=41	=41	=41	=41	=41	=41
!	!	!	!	!LO:TX:t=P:problem=mixed beam	!	!
2G#\	.	2b/	8r	8d/L	2.r	.
.	.	.	8b\L	(8dd\	.	.
.	.	.	8dd\	8b\	.	.
.	.	.	8cc#\J	8a\	.	.
4E\	.	4b/	4b/	8g#X\)	.	.
.	.	.	.	8dd\J	.	.
=42	=42	=42	=42	=42	=42	=42
4A\	.	2e/	4bT/	4dd\	2.r	.
4AA/	.	.	4a/	4cc#\	.	.
4r	.	4r	4r	4r	.	.
=43	=43	=43	=43	=43	=43	=43
!	!	!LO:TX:a:t=1.	!LO:TX:a:t=1.	!LO:TX:a:t=1.	!	!
!	!	!	!	!	!LO:TUP:problem=klamra łukowa	!
2A\	.	2.r	2.r	2.r	12ee\L	Es-
.	.	.	.	.	12ff#\	.
.	.	.	.	.	12ee\J	.
.	.	.	.	.	4ff#\	.
4A\	.	.	.	.	4ee\	-to
=44	=44	=44	=44	=44	=44	=44
4B\	.	4r	8r	8r	(8dd\L	mi-
.	.	.	8b\L	8dd\L	8cc#\J)	.
4r	.	4b/	(8dd\	(8b\	4dd\	-hi
.	.	.	8cc#\)	8a\	.	.
4r	.	4b/	8b\	8g#X\)	4r	.
.	.	.	8dd\J	8b\J	.	.
=45	=45	=45	=45	=45	=45	=45
!	!	!	!	!	!LO:TUP:problem=klamra łukowa	!
2G#\	.	4b/	4e/	4e/	12dd\L	San-
.	.	.	.	.	12ee\	.
.	.	.	.	.	12dd\J	.
.	.	4r	4r	4r	4ff#\	.
4G#\	.	4r	4r	4r	4dd\	-cta
!	!	!LO:LB:g=original	!	!	!	!
=46	=46	=46	=46	=46	=46	=46
2A\	.	4r	4r	8r	(8cc#\L	di-
.	.	.	.	8ee\L	8b\J)	.
.	.	4a/	8ee\L	8cc#\	4cc#\	-es
.	.	.	8cc#\	8a\J	.	.
*	*	*	*	*	*custos:cc	*
4A\	.	4a/	8a\	8e/L	4r	.
.	.	.	8e\J	8c#/J	.	.
!	!	!	!	!	!LO:PB:g=original	!
=47	=47	=47	=47	=47	=47	=47
!	!	!	!	!	!LO:TUP:problem=klamra łukowa	!
2A\	.	4a/	4c#/	4A/	12cc#\L	cha-
.	.	.	.	.	12dd\	.
.	.	.	.	.	12cc#\J	.
.	.	4r	4r	4r	4dd\	.
4AA/	.	4r	4r	4r	4cc#\	-ra
=48	=48	=48	=48	=48	=48	=48
!	!	!LO:TX:a:t=1.	!LO:TX:a:t=1.	!LO:TX:a:t=1.	!	!
2E\	6 4	2.r	2.r	2.r	4cc#\	qui-
.	.	.	.	.	4b\	-es
4E\	5	.	.	.	8ee\	et
.	.	.	.	.	8a\	ſo-
!LO:LB:g=original	!	!	!	!	!	!
=49	=49	=49	=49	=49	=49	=49
4F#\	#	4r	4r	4r	4.a#X\	-la-
4F#\	.	4a#X/	8r	8ff#\L	.	.
.	.	.	8ff#\L	8cc#\	16cc#\LL	.
.	.	.	.	.	16dd\JJ	.
4F#\	.	4a#/	8cc#\	8a#X\	8ee\L	.
*	*	*	*	*custos:dd	*	*
!	!	!	!	!LO:TX:t=P:problem=11 taktów wykreślonych	!	!
.	.	.	8a#X\J	8f#\J	16dd\L	.
.	.	.	.	.	16cc#\JJ	.
!	!	!	!	!LO:LB:g=original	!	!
=50	=50	=50	=50	=50	=50	=50
4B\	.	4b/	4f#/	4dd\	8dd\L	.
.	.	.	.	.	8b\	.
4r	.	4r	4r	4r	8dd\	.
.	.	.	.	.	8ff#\	.
4r	.	4r	4r	4r	8dd#X\	.
.	.	.	.	.	8cc#\J	.
=51	=51	=51	=51	=51	=51	=51
4G#\	.	4r	4r	8r	4b#X\	.
.	.	.	.	8gg#\L	.	.
4G#\	.	4g#/	8r	8dd#X\	8r	.
.	.	.	8gg#\L	8b#X\J	16dd#X\LL	.
.	.	.	.	.	16ee\JJ	.
4G#\	.	4g#/	8dd#X\	4g#/	8ff#\L	.
.	.	.	8b#X\J	.	16ee\L	.
.	.	.	.	.	16dd#X\JJ	.
!	!	!	!LO:LB:g=original	!	!	!
=52	=52	=52	=52	=52	=52	=52
!	!	!LO:SIC:v:s=4g#/	!	!	!	!
4c#\	.	4a/	4g#/	4ee\	4.ee\	.
4c#\	.	4r	4r	4r	.	.
.	.	.	.	.	8gg#\L	.
4c#\	.	4r	4r	4r	8cc#\	.
.	.	.	.	.	8b\J	.
=53	=53	=53	=53	=53	=53	=53
!	!	!LO:TX:t=P:problem=takty 53-56 zapisane powtórką	!	!	!	!
4F#\	#	4ryy	4r	8r	4.a#X\	.
.	.	.	.	8ff#\L	.	.
4F#\	.	4a#X/yy	8r	8cc#\	.	.
.	.	.	8ff#\L	8a#X\J	16cc#\LL	.
.	.	.	.	.	16dd\JJ	.
4F#\	7	[yy4a#/yy	8cc#\	4f#/	8ee\L	.
.	.	.	8a#X\J	.	16dd\L	.
.	.	.	.	.	16cc#\JJ	.
!	!	!	!	!	!LO:LB:g=original	!
=54	=54	=54	=54	=54	=54	=54
4B\	.	4byy/]yy	4f#/	4dd\	4.dd\	.
4B\	.	4ryy	4r	4r	.	.
.	.	.	.	.	8ff#\L	.
4B\	.	4ryy	4r	4r	8b\	.
.	.	.	.	.	8a\J	.
=55	=55	=55	=55	=55	=55	=55
4E\	.	4ryy	4r	8r	4.g#X/	.
.	.	.	.	8ee\L	.	.
4E\	.	4g#/yy	8r	8b\	.	.
.	.	.	8ee\L	8g#\J	16b\LL	.
.	.	.	.	.	16cc#\JJ	.
4E\	.	[4g#/yy	8b\	4e/	8dd\L	.
.	.	.	8g#\J	.	16cc#\L	.
.	.	.	.	.	16b\JJ	.
=56	=56	=56	=56	=56	=56	=56
2AA/	.	4ayy/]yy	4e/	4cc#\	4.cc#\	.
.	.	4ryy	4r	4r	.	.
.	.	.	.	.	16b\LL	.
.	.	.	.	.	16a\JJ	.
4BB/	.	4ryy	4r	4r	8dd\L	.
.	.	.	.	.	16cc#\L	.
.	.	.	.	.	16b\JJ	.
=57	=57	=57	=57	=57	=57	=57
!	!	!LO:TX:a:t=3.	!LO:TX:a:t=3.	!LO:TX:a:t=3.	!	!
2C#/	.	2.r	2.r	2.r	4.ee\	.
.	.	.	.	.	16dd\LL	.
.	.	.	.	.	16cc#\JJ	.
4D/	.	.	.	.	8ff#\L	.
.	.	.	.	.	8a\J	.
=58	=58	=58	=58	=58	=58	=58
4E\	.	2.r	2.r	2.r	4.g#X/	.
4E\	.	.	.	.	.	.
.	.	.	.	.	8dd\	-ti-
4G#\	.	.	.	.	8cc#\	-um
.	.	.	.	.	8b\	cor-
=59	=59	=59	=59	=59	=59	=59
4A\	.	2.r	2.r	2.r	8cc#\L	-diſ
.	.	.	.	.	16b\L	.
.	.	.	.	.	16a\JJ	.
4E\	4	.	.	.	4a\	me-
4EE/	3	.	.	.	4b\	.
=60	=60	=60	=60	=60	=60	=60
4AA/	.	4r	4r	8r	4a\	-i
.	.	.	.	8ee/L	.	.
4r	.	4A/	8r	8cc#/	4r	.
*	*	*	*	*custos:e	*	*
.	.	.	8ee\L	8a/J	.	.
!	!	!	!	!LO:LB:g=original	!	!
4r	.	4A/	8cc#\	8e/L	4r	.
.	.	.	8a\J	8c#/J	.	.
!LO:LB:g=original	!	!	!	!	!	!
=61	=61	=61	=61	=61	=61	=61
!	!	!	!	!	!LO:TX:a:t=1.	!
4r	.	4A/	8e/L	4A/	2.r	.
.	.	.	8c#/J	.	.	.
4AA/	.	4r	4A/	4r	.	.
4BB/	.	4r	4r	4r	.	.
!	!	!	!	!	!LO:LB:g=original	!
=62	=62	=62	=62	=62	=62	=62
!	!	!LO:TX:a:t=1.	!	!	!	!
4C#/	6	2.r	4a/	4ee\	16ee\LL	San-
.	.	.	.	.	16cc#\	.
.	.	.	.	.	16dd\	.
.	.	.	.	.	16ee\JJ	.
4C#/	.	.	4r	4r	4a\	.
4C#/	5-r	.	4r	4r	4gn/	-cta
=63	=63	=63	=63	=63	=63	=63
!	!	!	!	!	!LO:SIC:v:s=4gn/	!
2D/	.	4r	4r	8r	4g#/	di-
.	.	.	.	8dd/L	.	.
.	.	4d/	8r	8a/	4f#/	-es
.	.	.	8dd\L	8f#/J	.	.
4r	.	4d/	8a\	4d/	4r	.
.	.	.	8f#\J	.	.	.
!	!	!	!LO:LB:g=original	!	!	!
=64	=64	=64	=64	=64	=64	=64
4D#X/	.	4d#X/	4b/	4ff#\	16ff#\LL	cha-
.	.	.	.	.	16dd#X\	.
.	.	.	.	.	16ee\	.
.	.	.	.	.	16ff#\JJ	.
4D#/	.	4r	4r	4r	4b\	.
4D#/	.	4r	4r	4r	4a\	-ra
!	!	!LO:LB:g=original	!	!	!	!
=65	=65	=65	=65	=65	=65	=65
2E\	.	4r	4r	8r	4a\	qui-
.	.	.	.	8ee\L	.	.
.	.	4e/	8r	8b\	4g#/	-es
.	.	.	8ee\L	8g#\J	.	.
4r	.	4e/	8b\	4e/	8b\	et
.	.	.	8g#\J	.	8g#/	So-
=66	=66	=66	=66	=66	=66	=66
!	!	!	!LO:TX:t=P:problem=mixed beam	!	!	!
4E\	.	4g#/	8e/L	8r	8e\L	-la-
.	.	.	8b\	8g#/L	8g#X\	.
4E\	.	4g#/	(8cc#\	(8a/	8a\	.
.	.	.	8dd\)	8b/	8b\	.
4E\	.	4g#/	8g#\	8e/)	8e\	.
.	.	.	8dd\J	8b/J	8b\J	.
=67	=67	=67	=67	=67	=67	=67
4E\	6 4	4a/	8r	8r	8r	.
!	!	!	!	!LO:TX:t=P:problem=mixed beam	!LO:TX:t=P:problem=mixed beam	!
.	.	.	8cc#\L	8a\L	8a\L	.
4E\	.	4a/	(8dd\	(8b\	8b\	.
.	.	.	(8ee\)	8cc#\	8cc#\	.
4E\	.	4a/	8a\)	8e/)	8e/	.
.	.	.	8ee\J	8cc#\J	8cc#\J	.
=68	=68	=68	=68	=68	=68	=68
4E\	.	4b/	8r	8r	8r	.
!	!	!	!	!LO:TX:t=P:problem=mixed beam	!LO:TX:t=P:problem=mixed beam	!
.	.	.	(8g#/L	8b\L	8b\L	.
4E\	.	4b/	8a/	(8cc#\	8cc#\	.
.	.	.	8b/	8dd\	8dd\	.
4E\	.	4e/	8g#/)	8e/)	8e/	.
.	.	.	8b/J	8dd\J	8dd\J	.
!	!	!	!	!LO:LB:g=original	!LO:LB:g=original	!
=69	=69	=69	=69	=69	=69	=69
2AA/	.	4e/	4a/	4cc#\	4.cc#\	.
.	.	4r	4r	4r	.	.
.	.	.	.	.	16b\LL	-ti-
.	.	.	.	.	16a\JJ	.
4BB/	.	4r	4r	4r	8dd\	-um
.	.	.	.	.	(16cc#\LL	cor-
.	.	.	.	.	16b\JJ)	.
=70	=70	=70	=70	=70	=70	=70
!	!	!LO:TX:a:t=1.	!LO:TX:a:t=1.	!LO:TX:a:t=1.	!	!
8C#/L	.	2.r	2.r	2.r	8ee\	.
8D/J	.	.	.	.	8a\	-dis
2E\	.	.	.	.	4a\	me-
.	.	.	.	.	4bT\	.
=71	=71	=71	=71	=71	=71	=71
!	!	!	!	!	!LO:TX:i:a:t=Fine &colon;	!
4AA/	.	4r	4r	8r	4a;<\	-i
.	.	.	.	(8cc#/L	.	.
*>B	*	*>B	*>B	*>B	*>B	*
4r	.	4r	4r	8dd/	4r	.
.	.	.	.	8ee/	.	.
*custos:D	*	*	*	*	*	*
4C#/	.	4e/	4ee\	8a/)	4r	.
.	.	.	.	8g#/J	.	.
!LO:PB:g=original	!	!	!	!	!	!
=72	=72	=72	=72	=72	=72	=72
!	!	!	!	!LO:TX:t=P:problem=mixed beam	!LO:TX:a:t=7.	!
4D/	6 4	4f#/	4a/	(8f#/L	2.r	.
!	!	!	!	!LO:SIC:v:s=8dd\	!	!
.	.	.	.	8dd#X\	.	.
4r	.	4r	4r	8ee\	.	.
.	.	.	.	8ff#\)	.	.
4D#X/	.	4f#/	4ff#\	8b\	.	.
.	.	.	.	8a\J	.	.
!	!	!	!LO:LB:g=original	!	!	!
=73	=73	=73	=73	=73	=73	=73
4E\	.	4g#/	8b\L	(8g#/L	2.r	.
.	.	.	8b\	8g#/	.	.
4E\	.	4g#/	(8cc#\	8a/	.	.
.	.	.	8dd\)	8b/)	.	.
4E\	.	4g#/	8g#X\	8e/	.	.
.	.	.	8dd\J	8b/J	.	.
=74	=74	=74	=74	=74	=74	=74
4E\	6 4	4a/	8r	8r	2.r	.
!	!	!	!	!LO:TX:t=P:problem=mixed beam	!	!
.	.	.	8cc#\L	(8a\L	.	.
4E\	.	4a/	(8dd\	8b\	.	.
.	.	.	8ee\)	8cc#\)	.	.
4E\	.	4a/	8a\	8e/	.	.
.	.	.	8ee\J	8cc#\J	.	.
=75	=75	=75	=75	=75	=75	=75
4E\	.	4b/	8r	8r	2.r	.
!	!	!	!	!LO:TX:t=P:problem=mixed beam	!	!
.	.	.	8g#/L	8b\L	.	.
4E\	.	4b/	(8a/	(8cc#\	.	.
.	.	.	8b/	8dd\	.	.
4E\	.	4b/	8g#/)	8e/)	.	.
.	.	.	8b/J	8dd\J	.	.
=76	=76	=76	=76	=76	=76	=76
4.A\	.	4cc#\	4.a/	4.cc#\	2.r	.
.	.	4b/	.	.	.	.
8G#\	.	.	8b/	8g#X/	.	.
4F#\	.	4a/	4cc#\	4a/	.	.
=77	=77	=77	=77	=77	=77	=77
8r	.	8r	8r	8r	2.r	.
8D/	.	8f#/	8b/	8dd\	.	.
4E\	.	2e/	2g#/	2bT/	.	.
4EE/	.	.	.	.	.	.
!	!	!LO:LB:g=original	!	!LO:LB:g=original	!	!
=78	=78	=78	=78	=78	=78	=78
4.AA;</	.	4e;</	4a;</	4a;/	2.r	.
.	.	4r	4r	4r	.	.
8B\L	.	.	.	.	.	.
8A\	.	4r	4r	4r	.	.
8G#\J	.	.	.	.	.	.
=79	=79	=79	=79	=79	=79	=79
!	!	!	!	!	!LO:TUP:problem=klamra łukowa	!
8F#\L	.	(8f#/L	8a/L	8ff#\L	12cc#\L	red-
.	.	.	.	.	12dd\	.
8F#\	.	8a/)	8a/	8ff#\	.	.
.	.	.	.	.	12cc#\J	.
8F#\	.	(8f#/	8a/	8ff#\	4dd\	.
8F#\	.	8a/)	8a/	8ff#\	.	.
8F#\	.	(8f#/	8a/	8ff#\	4cc#\	-de
8F#\J	.	8a/J)	8a/J	8ff#\J	.	.
=80	=80	=80	=80	=80	=80	=80
8F#\L	4 2	(8g#/L	8b/L	8gg#\L	(8b\L	mi-
8F#\	.	8b/)	8b/	8gg#\	8a#X\J)	.
8F#\	.	(8g#/	8b/	8gg#\	4b\	-hi
8F#\	.	8b/)	8b/	8gg#\	.	.
8F#\	.	(8g#/	8b/	8gg#\	4r	.
8F#\J	.	8b/J)	8b/J	8gg#\J	.	.
!LO:LB:g=original	!	!	!LO:LB:g=original	!	!	!
=81	=81	=81	=81	=81	=81	=81
!	!	!	!	!	!LO:TUP:problem=klamra łukowa	!
8E#X\L	7 5	(8e#X/L	8cc#\L	8gg#\L	12b\L	lae-
.	.	.	.	.	12cc#\	.
8E#\	.	8g#/)	8cc#\	8gg#\	.	.
.	.	.	.	.	12dd\J	.
8E#\	.	(8e#/	8cc#\	8gg#\	4cc#\	.
8E#\	.	8g#/)	8cc#\	8gg#\	.	.
8E#\	.	(8e#/	8cc#\	8gg#\	4b\	-tam
8E#\J	.	8g#/J)	8cc#\J	8gg#\J	.	.
=82	=82	=82	=82	=82	=82	=82
8F#\L	.	(8f#/L	8cc#\L	8aa\L	(8a\L	for-
8F#\	.	8a/	8cc#\	8aa\	8g#X\J)	.
8F#\	.	8f#/	8cc#\	8aa\	4a\	-tem
8F#\	.	8a/	8cc#\	8aa\	.	.
8F#\	.	8f#/)	8cc#\	8aa\	4r	.
8F#\J	.	8a/J	8cc#\J	8aa\J	.	.
!	!	!	!	!	!LO:LB:g=original	!
=83	=83	=83	=83	=83	=83	=83
8En\L	4 2	8f#/L	8cc#\L	8aa#X\L	2a#X\	fac
!	!	!LO:SIC:v:s=(8a#/	!	!	!	!
8E\	.	(8a/	8cc#\	8aa#\	.	.
8E\	.	8f#/	8cc#\	8aa#\	.	.
!	!	!LO:SIC:v:s=8a#/	!	!	!	!
8E\	.	8a/	8cc#\	8aa#\	.	.
8E\	.	8f#/)	8cc#\	8aa#\	4a#\	ut
!	!	!LO:SIC:v:s=8a#/J	!	!	!	!
8E\J	.	8a/J	8cc#\J	8aa#\J	.	.
=84	=84	=84	=84	=84	=84	=84
8D#X/L	6	(8f#/L	8b/L	8ff#\L	(8b\L	por-
8D#/	.	8b/	8b/	8ff#\	8a#X\J)	.
8D#/	.	8f#/	8b/	8ff#\	4b\	-tem
8D#/	.	8b/	8b/	8ff#\	.	.
8D#/	.	8f#/)	8b/	8ff#\	4r	.
8D#/J	.	8b/J	8b/J	8ff#\J	.	.
=85	=85	=85	=85	=85	=85	=85
!LO:SIC:v:s=8D#/L	!	!	!	!	!	!
8D/L	.	8d#X/L	8a/L	8ff#\L	4ff#\	fac
!LO:SIC:v:s=8D#/	!	!	!	!	!	!
8D/	.	8f#/	8a/	8ff#\	.	.
!LO:SIC:v:s=8D#/	!	!	!	!	!	!
8D/	.	(8d#/	8b/	8ff#\	(4b\	ut
!LO:SIC:v:s=8D#/	!	!	!	!	!	!
8D/	.	8f#/	8b/	8ff#\	.	.
!LO:SIC:v:s=8D#/	!	!	!	!	!	!
8D/	.	8d#/	8b/	8ff#\	4a\)	.
!LO:SIC:v:s=8D#/J	!	!	!	!	!	!
8D/J	.	8f#/J)	8b/J	8ff#\J	.	.
=86	=86	=86	=86	=86	=86	=86
!	!	!	!	!	!LO:SIC:v:s=(8g#/L	!
8E\L	.	8e/L	8b/L	8gg#\L	(8gn/L	por-
8E\	.	(8g#/	8b/	8gg#\	8f#/J)	.
!	!	!	!	!	!LO:SIC:v:s=4g#/	!
8E\	.	8e/	8b/	8gg#\	4g/	-tem
8E\	.	8g#/	8b/	8gg#\	.	.
8E\	.	8e/	8b/	8gg#\	4r	.
8E\J	.	8g#/J)	8b/J	8gg#\J	.	.
!	!	!LO:LB:g=original	!	!LO:LB:g=original	!	!
=87	=87	=87	=87	=87	=87	=87
8Dn/L	.	8d/L	8b/L	8gg#\L	4b\	pa-
8D/	.	(8g#/	8b/	8gg#\	.	.
8D/	.	8d/	8b/	8gg#\	4.g#X/	.
8D/	.	8g#/	8b/	8gg#\	.	.
8D/	.	8d/	8b/	8gg#\	.	.
8D/J	.	8g#/J)	8b/J	8gg#\J	16a\LL	.
.	.	.	.	.	16b\JJ	.
!LO:LB:g=original	!	!	!	!	!	!
=88	=88	=88	=88	=88	=88	=88
8C#/L	.	(8c#/L	8ee\L	8aa\L	4a\	.
8C#/	.	8e/	8ee\	8aa\	.	.
8C#/	.	8c#/	8ee\	8aa\	4.a\	.
8C#/	.	8e/	8ee\	8aa\	.	.
8C#/	.	8c#/)	8ee\	8aa\	.	.
8C#/J	.	8e/J	8ee\J	8aa\J	16b\LL	.
.	.	.	.	.	16cc#\JJ	.
!	!	!	!LO:LB:g=original	!	!	!
=89	=89	=89	=89	=89	=89	=89
8GG#/L	.	(8g#/L	8ee\L	8bb\L	4b\	.
8GG#/	.	8b/	8ee\	8bb\	.	.
8GG#/	.	8g#/	8ee\	8bb\	4.b\	.
8GG#/	.	8b/	8ee\	8bb\	.	.
8GG#/	.	8g#/)	8ee\	8bb\	.	.
8GG#/J	.	8b/J	8ee\J	8bb\J	16cc#\LL	.
.	.	.	.	.	16dd\JJ	.
=90	=90	=90	=90	=90	=90	=90
8AA/L	.	4a/	4ee\	4ccc#\	4.cc#\	.
8AA/	.	.	.	.	.	.
8AA/	.	4r	4r	4r	.	.
8AA/	.	.	.	.	16b\LL	.
.	.	.	.	.	16cc#\JJ	.
8C#/	.	4r	4r	4r	8dd\L	.
8C#/J	.	.	.	.	16cc#\L	.
.	.	.	.	.	16b\JJ	.
!	!	!	!	!	!LO:LB:g=original	!
=91	=91	=91	=91	=91	=91	=91
8A\L	.	4a/	4ee\	4ccc#\	4.cc#\	.
8A\	.	.	.	.	.	.
8A\	.	4r	4r	4r	.	.
8A\	.	.	.	.	16b\LL	.
.	.	.	.	.	16cc#\JJ	.
8E\	7	4r	4r	4r	8dd\L	.
8E\J	.	.	.	.	16cc#\L	.
.	.	.	.	.	16b\JJ	.
=92	=92	=92	=92	=92	=92	=92
8A\L	.	4a/	4ee\	4ccc#\	8cc#\	.
8D\J	.	.	.	.	8dd\	-cem
4E\	.	4r	4r	4r	4a\	De-
4EE/	.	4r	4r	4r	4bT\	.
=93	=93	=93	=93	=93	=93	=93
8AA/L	.	8a\L	4r	4r	4a\	-i
8AA/	.	8cc#\	.	.	.	.
8AA/	.	8a\	8r	8r	4r	.
8AA/	.	8cc#\	8cc#\L	8ee\L	.	.
8AA/	.	8a\	8cc#\	8ee\	4r	.
8AA/J	.	8cc#\J	8cc#\J	8ee\J	.	.
=94	=94	=94	=94	=94	=94	=94
8AA#X/L	6	8a#X\L	8cc#\L	8ff#\L	4r	.
8AA#/	.	8cc#\	8cc#\	8ff#\	.	.
8AA#/	.	8a#\	8cc#\	8ff#\	8cc#\L	red-
8AA#/	.	8cc#\	8cc#\	8ff#\	16dd\L	.
.	.	.	.	.	16ee\JJ	.
8AA#/	.	8a#\	8cc#\	8ff#\	8ff#\	.
8AA#/J	.	8cc#\J	8cc#\J	8ff#\J	8ee\	-de
=95	=95	=95	=95	=95	=95	=95
8BB/L	.	8b\L	8dd\L	8ff#\L	(8dd\L	mi-
8BB/	.	8dd\	8dd\	8ff#\	8cc#\J)	.
8BB/	.	8b\	8dd\	8ff#\	4dd\	-hi
8BB/	.	8dd\	8dd\	8ff#\	.	.
8BB/	.	8b\	8dd\	8ff#\	4r	.
8BB/J	.	8dd\J	8dd\J	8ff#\J	.	.
!LO:LB:g=original	!	!	!	!	!	!
=96	=96	=96	=96	=96	=96	=96
8BB#X/L	.	8b#X\L	8dd#X\L	8gg#\L	4r	.
8BB#/	.	8dd#X\	8dd#\	8gg#\	.	.
8BB#/	.	8b#\	8dd#\	8gg#\	8dd#X\L	lae-
8BB#/	.	8dd#\	8dd#\	8gg#\	16ee\L	.
.	.	.	.	.	16ff#\JJ	.
8BB#/	.	8b#\	8dd#\	8gg#\	8gg#\	.
8BB#/J	.	8dd#\J	8dd#\J	8gg#\J	8ff#\	-tam
!	!	!LO:LB:g=original	!	!LO:LB:g=original	!	!
=97	=97	=97	=97	=97	=97	=97
8C#/L	.	8cc#\L	8ee\L	8gg#\L	(8ee\L	for-
8C#/	.	8ee\J	8ee\J	8gg#\J	8dd#X\J)	.
8C#/	.	4ee\	4ee\	4gg#\	4ee\	-tem
8C#/	.	.	.	.	.	.
8C#/	.	4r	4r	4r	4r	.
8C#/J	.	.	.	.	.	.
!	!	!	!LO:LB:g=original	!	!LO:LB:g=original	!
=98	=98	=98	=98	=98	=98	=98
!LO:TX:a:t=10.	!	!LO:TX:a:t=13.	!	!	!	!
2.r	.	2.r	8f#/L	8f#/L	(4ddn\	fac-
.	.	.	8f#/	8f#/	.	.
.	.	.	8f#/	8f#/	4cc#\)	.
.	.	.	8f#/	8f#/	.	.
.	.	.	8g#/	8g#/	4b#X\	-ut
.	.	.	8g#/J	8g#/J	.	.
=99	=99	=99	=99	=99	=99	=99
2.r	.	2.r	8a/L	8a/L	2.cc#\	por-
.	.	.	8a/	8a/	.	.
!	!	!	!	!LO:TX:t=P:problem=# below	!	!
.	.	.	8g#/	8g#X/	.	.
.	.	.	8g#/	8g#/	.	.
!	!	!	!LO:SIC:v:s=8f#/	!	!	!
.	.	.	8e#X/	8f#/	.	.
!	!	!	!LO:SIC:v:s=8f#/J	!	!	!
.	.	.	8e#/J	8f#/J	.	.
=100	=100	=100	=100	=100	=100	=100
!	!	!	!	!LO:TX:t=P:problem=# below	!	!
2.r	.	2.r	4.g#/	8g#X/L	8cc#\L	.
.	.	.	.	8g#/	8dd\	.
.	.	.	.	8g#/	8b\	.
.	.	.	8f#/L	8f#/	8a#X\J	.
.	.	.	8e#X/	8e#X/	4b\	.
.	.	.	8d#X/J	8d#X/J	.	.
=101	=101	=101	=101	=101	=101	=101
2.r	.	2.r	8e#X/L	8e#X/L	8b\L	.
.	.	.	8e#/	8e#/	8dd\	.
.	.	.	8e#/	8e#/	8cc#\	.
.	.	.	8e#/	8e#/	8b\	.
.	.	.	8e#/	8e#/	8a\	.
.	.	.	8e#/J	8e#/J	8g#X\J	.
=102	=102	=102	=102	=102	=102	=102
2.r	.	2.r	8f#/L	8f#/L	8.a\L	.
.	.	.	8f#/	8f#/	.	.
.	.	.	.	.	16g#X\Jk	.
!	!	!	!	!	!LO:TX:a:t=sic&colon;l&colon;s=-tem	!
.	.	.	8f#/	8f#/	4f#/	-tam
.	.	.	8f#/	8f#/	.	.
.	.	.	8f#/	8f#/	4r	.
.	.	.	8f#/J	8f#/J	.	.
=103	=103	=103	=103	=103	=103	=103
2.r	.	2.r	8f#/L	8f#/L	(4ff#\	fi-
.	.	.	8f#/	8f#/	.	.
.	.	.	8f#/	8f#/	4dd#X\)	.
.	.	.	8f#/	8f#/	.	.
.	.	.	8f#/	8f#/	4cc#\	-tam
*	*	*	*	*custos:g#	*	*
!	!	!	!	!LO:TX:i:b:t=Verte cito.	!	!
.	.	.	8f#/J	8f#/J	.	.
!	!	!	!	!LO:PB:g=original	!	!
=104	=104	=104	=104	=104	=104	=104
2.r	.	2.r	8g#/L	8g#/L	(8b\L	cor-
.	.	.	8g#/	8g#/	8a\J)	.
.	.	.	8g#/	8g#/	4g#/	-de
.	.	.	8g#/	8g#/	.	.
.	.	.	8g#/	8g#/	4r	.
.	.	.	8f#/J	8f#/J	.	.
!	!	!	!LO:LB:g=original	!	!	!
=105	=105	=105	=105	=105	=105	=105
!	!	!	!	!LO:SIC:v:s=8e/L	!	!
2.r	.	2.r	8e/L	8e#X/L	4.cc#\	pa-
!	!	!	!	!LO:SIC:v:s=8e/	!	!
.	.	.	8e/	8e#/	.	.
!	!	!	!	!LO:SIC:v:s=8e/	!	!
.	.	.	8e/	8e#/	.	.
!	!	!	!	!LO:SIC:v:s=8e/	!	!
.	.	.	8e/	8e#/	8g#\L	.
!	!	!	!	!LO:SIC:v:s=8e/	!	!
.	.	.	8e/	8e#/	8cc#\	.
.	.	.	8c#/J	8c#/J	8g#\J	.
!	!	!	!	!	!LO:LB:g=original	!
=106	=106	=106	=106	=106	=106	=106
2.r	.	2.r	8B#X/L	8B#X/L	4.dd#X\	.
.	.	.	8B#/	8B#/	.	.
.	.	.	8B#/	8B#/	.	.
.	.	.	8B#/	8B#/	8g#\L	.
.	.	.	8B#/	8B#/	8dd#\	.
.	.	.	8B#/J	8B#/J	8g#\J	.
=107	=107	=107	=107	=107	=107	=107
2.r	.	2.r	8c#/L	8c#/L	4.ee\	.
.	.	.	8c#/	8c#/	.	.
.	.	.	8c#/	8c#/	.	.
.	.	.	8c#/	8c#/	8g#\L	.
.	.	.	8c#/	8c#/	8ee\	.
.	.	.	8c#/J	8c#/J	8g#\J	.
=108	=108	=108	=108	=108	=108	=108
!	!	!	!LO:TX:a:t=3.	!LO:TX:a:t=3.	!	!
4D/	.	2.r	2.r	2.r	4ff#\	.
4C#/	.	.	.	.	4ee\	.
4BB#X/	.	.	.	.	4dd#X\	.
=109	=109	=109	=109	=109	=109	=109
8C#\L	.	2.r	2.r	2.r	8ee\	.
8F#\J	.	.	.	.	8cc#\	-cem
4G#\	.	.	.	.	(4cc#\	De-
4GG#/	.	.	.	.	4dd#X\)	.
=110	=110	=110	=110	=110	=110	=110
!	!	!	!LO:TX:b:i:t=Verte Alleluja .	!	!	!
!LO:TX:i:b:t=DaCapo&colon;	!	!LO:TX:i:b:t=DaCapo&colon;	!LO:TX:i:b:t=Da Capo&colon;	!LO:TX:i:b:t=Da Capo&colon;	!LO:TX:i:b:t=DaCapo&colon;	!
!	!	!	!	!	!LO:TX:b:t=110.	!
2.C#/	.	2.r	2.r	2.r	2.cc#\	-i.
==	==	==	==	==	==	==
*-	*-	*-	*-	*-	*-	*-
!!!system-decoration: s1[(g1)]s5
!!!RDF**kern: > = above
!!!RDF**kern: < = below
!!!ENC: Andrzej Borzym
!!!END: 2020-11-29
!!!ENC: Kamil Watkowski
!!!END: 2022-03-07
